icons/circle/48/empathy.svg

<svg xmlns="http://www.w3.org/2000/svg" viewBox="0 0 48 48">
 <defs>
  <linearGradient id="linearGradient3764" y1="47" x2="0" y2="1" gradientUnits="userSpaceOnUse">
   <stop style="stop-color:#23bd88;stop-opacity:1"/>
   <stop offset="1" style="stop-color:#26cd93;stop-opacity:1"/>
  </linearGradient>
 </defs>
 <g>
  <path d="m 36.31 5 c 5.859 4.062 9.688 10.831 9.688 18.5 c 0 12.426 -10.07 22.5 -22.5 22.5 c -7.669 0 -14.438 -3.828 -18.5 -9.688 c 1.037 1.822 2.306 3.499 3.781 4.969 c 4.085 3.712 9.514 5.969 15.469 5.969 c 12.703 0 23 -10.298 23 -23 c 0 -5.954 -2.256 -11.384 -5.969 -15.469 c -1.469 -1.475 -3.147 -2.744 -4.969 -3.781 z m 4.969 3.781 c 3.854 4.113 6.219 9.637 6.219 15.719 c 0 12.703 -10.297 23 -23 23 c -6.081 0 -11.606 -2.364 -15.719 -6.219 c 4.16 4.144 9.883 6.719 16.219 6.719 c 12.703 0 23 -10.298 23 -23 c 0 -6.335 -2.575 -12.06 -6.719 -16.219 z" style="opacity:0.05"/>
  <path d="m 41.28 8.781 c 3.712 4.085 5.969 9.514 5.969 15.469 c 0 12.703 -10.297 23 -23 23 c -5.954 0 -11.384 -2.256 -15.469 -5.969 c 4.113 3.854 9.637 6.219 15.719 6.219 c 12.703 0 23 -10.298 23 -23 c 0 -6.081 -2.364 -11.606 -6.219 -15.719 z" style="opacity:0.1"/>
  <path d="m 31.25 2.375 c 8.615 3.154 14.75 11.417 14.75 21.13 c 0 12.426 -10.07 22.5 -22.5 22.5 c -9.708 0 -17.971 -6.135 -21.12 -14.75 a 23 23 0 0 0 44.875 -7 a 23 23 0 0 0 -16 -21.875 z" style="opacity:0.2"/>
 </g>
 <g>
  <path d="m 24 1 c 12.703 0 23 10.297 23 23 c 0 12.703 -10.297 23 -23 23 -12.703 0 -23 -10.297 -23 -23 0 -12.703 10.297 -23 23 -23 z" style="fill:url(#linearGradient3764);fill-opacity:1"/>
 </g>
 <g>
  <g>
   <g transform="translate(1,1)">
    <g style="opacity:0.1">
     <!-- color: #26cd93 -->
     <g>
      <path d="m 25 12.5 c -4 0 -7 0.5 -10.227 1.5 c -0.937 0.289 -1.371 0.875 -1.773 1.773 c -1 2.227 -1.5 4.227 -1.5 7.727 c 0 2.5 0.5 4.5 1.5 7.73 c 0.289 0.938 0.816 1.543 1.773 1.77 c 1.648 0.39 2.927 0.68 4.148 0.918 c -0.258 1.706 -1.226 3.363 -2.922 4.082 c 3.613 0.137 7.216 -1.689 7.881 -3.518 c 0.361 0.001 0.723 0.018 1.119 0.018 c 4 0 6 -0.5 10.227 -1.5 c 0.957 -0.227 1.484 -0.832 1.773 -1.77 c 1 -3.23 1.5 -5.23 1.5 -7.73 c 0 -2.5 -0.5 -4.938 -1.5 -7.727 c -0.332 -0.925 -0.835 -1.484 -1.773 -1.773 c -3.227 -1 -6.227 -1.5 -10.227 -1.5 z" transform="translate(-1,-1)"/>
     </g>
    </g>
   </g>
  </g>
 </g>
 <g>
  <g>
   <!-- color: #26cd93 -->
   <g>
    <path d="M 13.773,13 C 17,12 20,11.5 24,11.5 c 4,0 7,0.5 10.227,1.5 0.938,0.289 1.441,0.848 1.773,1.773 C 37,17.562 37.5,20 37.5,22.5 37.5,25 37,27 36,30.23 35.711,31.168 35.184,31.773 34.227,32 30,33 28,33.5 24,33.5 20,33.5 18,33 13.773,32 12.816,31.773 12.289,31.168 12,30.23 11,27 10.5,25 10.5,22.5 10.5,19 11,17 12,14.773 12.402,13.875 12.836,13.289 13.773,13 m 0,0" style="fill:#ebeef2;fill-opacity:1;stroke:none;fill-rule:nonzero"/>
    <path d="m 23 32.898 c 0 2 -4 4.254 -8 4.102 2 -0.848 3 -3 3 -5 m 5 0.898" style="fill:#ebeef2;fill-opacity:1;stroke:none;fill-rule:nonzero"/>
    <path d="m 20 22 c 0 1.105 -0.895 2 -2 2 -1.105 0 -2 -0.895 -2 -2 0 -1.105 0.895 -2 2 -2 1.105 0 2 0.895 2 2 m 0 0" style="fill:#437fa2;fill-opacity:1;stroke:none;fill-rule:nonzero"/>
    <path d="m 26 22 c 0 1.105 -0.895 2 -2 2 -1.105 0 -2 -0.895 -2 -2 0 -1.105 0.895 -2 2 -2 1.105 0 2 0.895 2 2 m 0 0" style="fill:#437fa2;fill-opacity:1;stroke:none;fill-rule:nonzero"/>
    <path d="m 32 22 c 0 1.105 -0.895 2 -2 2 -1.105 0 -2 -0.895 -2 -2 0 -1.105 0.895 -2 2 -2 1.105 0 2 0.895 2 2 m 0 0" style="fill:#437fa2;fill-opacity:1;stroke:none;fill-rule:nonzero"/>
   </g>
  </g>
 </g>
 <g>
  <path d="m 40.03 7.531 c 3.712 4.084 5.969 9.514 5.969 15.469 0 12.703 -10.297 23 -23 23 c -5.954 0 -11.384 -2.256 -15.469 -5.969 4.178 4.291 10.01 6.969 16.469 6.969 c 12.703 0 23 -10.298 23 -23 0 -6.462 -2.677 -12.291 -6.969 -16.469 z" style="opacity:0.1"/>
 </g>
</svg>

<svg xmlns="http://www.w3.org/2000/svg" viewBox="0 0 48 48">
  <defs>
    <linearGradient id="a" y1="47" x2="0" y2="1" gradientUnits="userSpaceOnUse">
      <stop stop-color="#23bd88"/>
      <stop offset="1" stop-color="#26cd93"/>
    </linearGradient>
  </defs>
  <path d="M36.31 5c5.859 4.062 9.688 10.831 9.688 18.5 0 12.426-10.07 22.5-22.5 22.5-7.669 0-14.438-3.828-18.5-9.688a23.24 23.24 0 0 0 3.781 4.969 22.923 22.923 0 0 0 15.469 5.969c12.703 0 23-10.298 23-23a22.92 22.92 0 0 0-5.969-15.469A23.216 23.216 0 0 0 36.31 5zm4.969 3.781A22.911 22.911 0 0 1 47.498 24.5c0 12.703-10.297 23-23 23a22.909 22.909 0 0 1-15.719-6.219C12.939 45.425 18.662 48 24.998 48c12.703 0 23-10.298 23-23 0-6.335-2.575-12.06-6.719-16.219z" opacity=".05"/>
  <path d="M41.28 8.781a22.923 22.923 0 0 1 5.969 15.469c0 12.703-10.297 23-23 23A22.92 22.92 0 0 1 8.78 41.281 22.911 22.911 0 0 0 24.499 47.5c12.703 0 23-10.298 23-23A22.909 22.909 0 0 0 41.28 8.781z" opacity=".1"/>
  <path d="M31.25 2.375C39.865 5.529 46 13.792 46 23.505c0 12.426-10.07 22.5-22.5 22.5-9.708 0-17.971-6.135-21.12-14.75a23 23 0 0 0 44.875-7 23 23 0 0 0-16-21.875z" opacity=".2"/>
  <path d="M24 1c12.703 0 23 10.297 23 23S36.703 47 24 47 1 36.703 1 24 11.297 1 24 1z" fill="url(#a)"/>
  <path d="M25 12.5c-4 0-7 .5-10.227 1.5-.937.289-1.371.875-1.773 1.773C12 18 11.5 20 11.5 23.5c0 2.5.5 4.5 1.5 7.73.289.938.816 1.543 1.773 1.77 1.648.39 2.927.68 4.148.918-.258 1.706-1.226 3.363-2.922 4.082 3.613.137 7.216-1.689 7.881-3.518.361.001.723.018 1.119.018 4 0 6-.5 10.227-1.5.957-.227 1.484-.832 1.773-1.77 1-3.23 1.5-5.23 1.5-7.73s-.5-4.938-1.5-7.727c-.332-.925-.835-1.484-1.773-1.773-3.227-1-6.227-1.5-10.227-1.5z" opacity=".1"/>
  <g>
    <path d="M13.773 13C17 12 20 11.5 24 11.5s7 .5 10.227 1.5c.938.289 1.441.848 1.773 1.773 1 2.789 1.5 5.227 1.5 7.727S37 27 36 30.23c-.289.938-.816 1.543-1.773 1.77C30 33 28 33.5 24 33.5S18 33 13.773 32c-.957-.227-1.484-.832-1.773-1.77C11 27 10.5 25 10.5 22.5c0-3.5.5-5.5 1.5-7.727.402-.898.836-1.484 1.773-1.773m0 0" fill="#ebeef2"/>
    <path d="M23 32.898c0 2-4 4.254-8 4.102 2-.848 3-3 3-5m5 .898" fill="#ebeef2"/>
    <path d="M20 22a2 2 0 1 1-3.999.001A2 2 0 0 1 20 22m0 0M26 22a2 2 0 1 1-3.999.001A2 2 0 0 1 26 22m0 0M32 22a2 2 0 1 1-3.999.001A2 2 0 0 1 32 22m0 0" fill="#437fa2"/>
  </g>
  <g>
    <path d="M40.03 7.531A22.922 22.922 0 0 1 45.999 23c0 12.703-10.297 23-23 23A22.92 22.92 0 0 1 7.53 40.031C11.708 44.322 17.54 47 23.999 47c12.703 0 23-10.298 23-23 0-6.462-2.677-12.291-6.969-16.469z" opacity=".1"/>
  </g>
</svg>
